X:261
T: ES SAG EIN JEDER WAS ER WILL
N: E1401
O: Europa, Mitteleuropa, Deutschland, Hessen, Nassau
R: Staende -, Soldaten - Lied, Klage
M: 3/4
L: 1/16
K: F
F2F2A2 | c6c2d2c2 | A4z2
c2c2G2 | B4d2d2c3B | A4z2
C2F2A2 | c6c2c2f2 | d4c2
B2A2c2 | B6B2B2d2 | c2B2A2
G2F2G2 | A2B2c4d3c | A4z2
c2c2GA | B4d2d2c2B2 | A4z2

@@@ Tune index: 4945
